!!!!SEGMENT: pl-kk--kk-i-382--081-007_richling--msza-na-3-glosy-graduale.krn
!!!cenid: 18xx:1619
!!!COM: Richling
!!!COM-rismID: pe50045950
!!!CDT:
!!!CNT:
!!!OPR: Msza na 3 głosy
!!!OTL: Graduale
!!!OMV: 007
!!!PDT:
!!!AGN: Sacred; Mass
!!!YEC: Copyright 2022 Narodowy Instytut Fryderyka Chopina (https://polishscores.org)
!!!YEM: License CC-BY-4.0 (https://creativecommons.org/licenses/by/4.0)
!!!SMS-siglum: PL-Kk
!!!SMS-shelfmark: Kk.I.382
!!!SMS-shelfwork: 081-007 M
!!!SMS-variant:
!!!SMS-altvar:
!!!NIFC-rismSourceID: 1001139027
!!!NIFC-rismChildID: 1001142973
!!!NIFC-islandoraID: pl-kk:6162
!!!URL-pdf-islandora: https://repozytorium.nifc.pl/islandora/object/pl-kk%3A6162/datastream/PDF/view
!!!URL-scan: https://polish.musicsources.pl/pl/lokalizacje/galeria/rekopisy/5994 @EN{Scan on Polish Music Sources Website} @PL{Skany w portalu Dziedzictwo Muzyki Polskiej w otwartym dostępie}
!!!IIIF:
!!!ONB-nifc: S/T1 od 0065, A/B1 od 0208, B2 od 0282. Części Mszy: 1. Requiem, 2. Dies irae, 3. Offertorium, 4. Sanctus, 5. Benedictus, 6. Agnus, 7. Graduale, 8. Offertorium
!!!AIN: 1 alto 1 bass 1 tenor
!!!key:
**kern	**text	**kern	**text	**kern	**text
*part3	*	*part2	*	*part1	*
*staff3	*	*staff2	*	*staff1	*
*Ibass	*	*Ialto	*	*Itenor	*
*I"Basso II	*	*I"Alto vel Basso I	*	*I"Soprano vel Tenore I.	*
*I'B II	*	*I'A/B I	*	*I'S/T I	*
*clefF4	*	*clefG2	*	*clefG2	*
*	*	*ITrd7c12	*	*ITrd7c12	*
*k[f#c#]	*	*k[f#c#]	*	*k[f#c#]	*
*D:	*	*D:	*	*D:	*
*M3/4	*	*M3/4	*	*M3/4	*
*all/left	*	*all/left	*	*all/left	*
*all\right	*	*all\right	*	*all\right	*
8D/	Im-	8F#/	Im-	8A/	Im-
8C#/	-pro-	8E/	-pro-	8A/	-pro-
=1	=1	=1	=1	=1	=1
4BB/	-pe-	4F#/	-pe-	4d\	-pe-
8E\	-ri-	8G/	-ri-	8c#\	-ri-
8D\	-um	8G/	-um	8B\	-um
8C#/	ex-	8G/	ex-	8A/	ex-
8D\	-pec-	8F#/	-pec-	8B/	-pec-
=2	=2	=2	=2	=2	=2
4C#/	-ta-	8E/L	-ta-	4A/	-ta-
.	.	8G/J	.	.	.
4D\	-vit	4F#/	-vit	4A/	-vit
4BB/	cor	8F#/L	cor	4d\	cor
.	.	8B/J	.	.	.
=3	=3	=3	=3	=3	=3
4F#\	me-	4B\	me-	4d\	me-
!	!	!	!	!LO:TX:a:t=Winc Richling	!
4F#\	-um	4A#X/	-um	4c#\	-um
8F#\	et	8A#/	et	8c#\	et
8E\	[mi]-	8A#/	mi-	8c#\	mi-
!LO:PB:g=original	!	!LO:LB:g=original	!	!LO:LB:g=original	!
=4	=4	=4	=4	=4	=4
4D\	-se-	4B\	-se-	4f#\	-se-
8G\	-ri-	8B\	-ri-	8e\	-ri-
8F#\	-am	8A/	-am	8d\	-am
8E\	et	8G/	et	8c#\	et
8D\	sus-	8F#/	sus-	8d\	sus-
=5	=5	=5	=5	=5	=5
8.AA/	-ti-	8.E/	-ti-	8.c#\	-ti-
16AA/	-nu-	16D/	-nu-	16B\	-nu-
!	!	!	!LO:MO:mod=-it	!	!LO:MO:mod=-it
4AA/	-it	4C#/	-i	4A/	-i,
8r	.	8r	.	8r	.
8D\	qui	8F#/	qui	8B/	qui
=6	=6	=6	=6	=6	=6
*	*	*Xtuplet	*	*	*
4C#/	si-	12E/L	si-	4A/	si-
.	.	12F#/	.	.	.
.	.	12G/J	.	.	.
4D\	-mul	4F#/	-mul	4A/	-mul
4r	.	4r	.	4r	.
=7	=7	=7	=7	=7	=7
*	*	*	*	*2\right	*
(4G\	me-	2G/	me-	2B\	me-
4E\)	.	.	.	.	.
8C#/	-cum	8G/	-cum	8e\	-cum
8BB/	con-	8G/	con-	8d\	con-
!	!	!LO:LB:g=original	!	!	!
=8	=8	=8	=8	=8	=8
2AA#X/	-tris-	8.G/L	-tris-	2c#\	-tris-
.	.	16F#/Jk	.	.	.
.	.	12E/L	.	.	.
.	.	12F#/	.	.	.
.	.	12E/J	.	.	.
4BB/	-ta-	4D/	-ta-	4F#/	-ta-
!LO:LB:g=original	!	!	!	!LO:LB:g=original	!
=9	=9	=9	=9	=9	=9
4B\	-re-	4B\	-re-	4d\	-re-
4G\	-tur	4B\	-tur	4d\	-tur
8E\	et	8B\	et	8g\	et
8D\	non	8B\	non	8f#\	non
=10	=10	=10	=10	=10	=10
2C#/	fu-	8.B\L	fu-	2e#X\	fu-
.	.	16A\Jk	.	.	.
.	.	12G#X/L	.	.	.
.	.	12A/	.	.	.
.	.	12B/J	.	.	.
4D\	-it	4A/	-it	4f#\	-it
=11	=11	=11	=11	=11	=11
4r	.	2F#/	con-	2A/	con-
(8D\L	con-	.	.	.	.
8C#\J)	.	.	.	.	.
4BB#X/	-so-	4F#/	-so-	4A/	-so-
=12	=12	=12	=12	=12	=12
2C#/	-lan-	4F#/	-lan-	2G#X/	-lan-
.	.	4E#X/	-tem	.	.
8E#X\L	-tem	8G#X\L	.	4c#\	-tem
8C#\J	.	8c#\J	.	.	.
!	!	!LO:LB:g=original	!	!	!
=13	=13	=13	=13	=13	=13
(8GG#X/L	me	2c#\	me	2e#X\	me
8C#/	.	.	.	.	.
8E#X/	.	.	.	.	.
!LO:SIC:v:s=8G#	!	!	!	!	!
8G/J)	.	.	.	.	.
!	!LO:MO:mod=quae-	!	!LO:MO:mod=quae-	!	!LO:MO:mod=quae-
4GG#/	que-	8F#/L	que-	8d#X\L	que-
.	.	8D#X/J	.	8B#X\J	.
=14	=14	=14	=14	=14	=14
4C#/	-si-	4E#X/	-si-	4c#\	-si-
4C#/	-vi	4E#/	-vi	4G#X/	-vi
8c#\	et	8c#\	et	8c#\	et
8c#\	non	8c#\	non	8c#\	non
!LO:LB:g=original	!	!	!	!LO:LB:g=original	!
=15	=15	=15	=15	=15	=15
8.F#\	in-	8.A/	in-	8.c#\	in-
16F#\	-ve-	16A/	-ve-	16d\	-ve-
4F#\	-ni.	4A/	-ni	4c#\	-ni.
8r	.	8r	.	8r	.
8Fn\	de-	8A/	de-	8d\	de-
=16	=16	=16	=16	=16	=16
*2\right	*	*	*	*	*
2E\	-de-	4A/	-de-	2B\	-de-
.	.	4G#X/	.	.	.
4AA#X/	-runt	4G/	-runt	4c#\	-runt
=17	=17	=17	=17	=17	=17
4.BB/	es-	4.F#/	es-	4.d\	es-
8BB/	-cam	8d\	-cam	8f#\	-cam
8BB/	me-	8B\	me-	8d\	me-
8BB/	-am	8A/	-am	8c#\	-am
!	!	!LO:LB:g=original	!	!	!
=18	=18	=18	=18	=18	=18
4.E\	fel	4G#X/	fel	4B\	fel
.	.	4r	.	4r	.
8D\	.	.	.	.	.
8C#/	et	8A/	et	8A/	et
8C#/	in	8G/	in	8A/	in
=19	=19	=19	=19	=19	=19
4D\	si-	4F#/	si-	8A\L	si-
.	.	.	.	8d\J	.
4D\	-ti	4F#/	-ti	4A/	-ti
8C#/	me-	8G/	me-	8B/	me-
8D\	-a	8F#/	-a	8A/	-a
!LO:LB:g=original	!	!	!	!LO:LB:g=original	!
=20	=20	=20	=20	=20	=20
4AA/	po-	4E/	po-	4G/	po-
4BB/	-ta-	4D/	-ta-	4F#/	-ta-
4r	.	8F#/	-ve-	8d\	-ve-
.	.	8F#/	-runt	8d\	-runt
=21	=21	=21	=21	=21	=21
*	*	*2\right	*	*	*
8G\	-ve-	2B\	me	(4.d\	me
8G\	-runt	.	.	.	.
4G\	me	.	.	.	.
.	.	.	.	8d#X\)	.
8G\L	a-	4B\	a-	8e\L	a-
8E\J	.	.	.	8g\J	.
=22	=22	=22	=22	=22	=22
8A\L	-ce-	8A/L	-ce-	4c#\	-ce-
8AA\J	.	8G/J	.	.	.
4D\	-to	4F#/	-to	4d\	-to
4r	.	4r	.	8f#\	Al-
.	.	.	.	8d\	-le-
!	!	!LO:LB:g=original	!	!	!
=23	=23	=23	=23	=23	=23
8D\	Al-	8F#/	Al-	4A/	-lu-
8D#X\	-le-	8F#/	-le-	.	.
4E\	-lu-	4G/	-lu-	4A/	-ja
4C#/	-ja	4E/	-ja	8g\	Al-
.	.	.	.	8e\	-le-
=24	=24	=24	=24	=24	=24
8C#/	Al-	8E/	Al-	4A/	-lu-
8E\	-le-	8G/	-le-	.	.
4D\	-lu-	4F#/	-lu-	4A/	-ia
[8Cn/	-ja	8F#/	-ja	4d\	Al
8C/]	.	8F#/	Al-	.	.
!LO:LB:g=original	!	!	!	!LO:LB:g=original	!
=25	=25	=25	=25	=25	=25
4BB/	Al-	8G/L	-le-	2d\	Al-
.	.	8A/J	.	.	.
4GG/	-le-	4B\	.	.	.
4G\	-lu-	4B-X\	-lu-	8d\	-le-
.	.	.	.	8e\	-lu-
=26	=26	=26	=26	=26	=26
2.D\	-ja	2.A/	-ja	2.f#;\	-ja
==	==	==	==	==	==
*-	*-	*-	*-	*-	*-
!!!system-decoration: [(s1,s2,s3)]
!!!ENC: Marta Lawrence
!!!END: 2021-03-26
!!!ENC: Andrzej Borzym
!!!END: 2021-03-06
